X: 16
T: Cat's Meow, The
C: Joanie Madden
Z: Daniel Sebrian
S: https://thesession.org/tunes/342#setting51243
R: jig
M: 6/8
L: 1/8
K: Dmaj
|:FAd fef|afe dBA|BdB BAF|dAF E2 E|
FAd fef|afe dBA|Bde fdB|1 AFE D2G:|2 AFE D2e||
|:fdB AFA|DFA def|gef ged|ced cBA|
fdB AFA|DFA def|gec age|1 edc d2e:|2 edc d2A||
|:Adf a2a|agf agf|Ace g2g|gfe gfe|
fef gfg|aga bag|fdB gec|edc d3:|

